svgs/sharp-light/car-on.svg

<svg xmlns="http://www.w3.org/2000/svg" viewBox="0 0 512 512"><!--! Font Awesome Pro 6.6.0 by @fontawesome - https://fontawesome.com License - https://fontawesome.com/license (Commercial License) Copyright 2024 Fonticons, Inc. --><path d="M272 24l0 80 0 16-32 0 0-16 0-80 0-16 32 0 0 16zM139.9 176l12.1 0 208 0 12.1 0 3.3 11.6L404.1 288l11.9 0 32 0 0 32 0 112 0 16s0 0 0 0l0 64-32 0 0-48s0 0 0 0L96 464l0 48-32 0 0-48s0 0 0 0l0-32 0-112 0-32 32 0 11.9 0 28.7-100.4 3.3-11.6zM392.4 320c-.2 0-.5 0-.7 0l-271.3 0c-.2 0-.5 0-.7 0L96 320l0 112 320 0 0-112-23.6 0zM347.9 208l-183.9 0-22.9 80 229.6 0-22.9-80zM144 352a24 24 0 1 1 0 48 24 24 0 1 1 0-48zm200 24a24 24 0 1 1 48 0 24 24 0 1 1 -48 0zM56 33.4L67.3 44.7l48 48L126.6 104 104 126.6 92.7 115.3l-48-48L33.4 56 56 33.4zM444.7 44.7L456 33.4 478.6 56 467.3 67.3l-48 48L408 126.6 385.4 104l11.3-11.3 48-48z"/></svg>

<svg xmlns="http://www.w3.org/2000/svg" viewBox="0 0 512 512"><!--! Font Awesome Pro 6.5.2 by @fontawesome - https://fontawesome.com License - https://fontawesome.com/license (Commercial License) Copyright 2024 Fonticons, Inc. --><path d="M272 24v80 16H240V104 24 8h32V24zM139.9 176H152 360h12.1l3.3 11.6L404.1 288H416h32v32V432v16h0v64H416V464h0H96v48H64V464h0V432 320 288H96h11.9l28.7-100.4 3.3-11.6zM392.4 320c-.2 0-.5 0-.7 0H120.4c-.2 0-.5 0-.7 0H96V432H416V320H392.4zM347.9 208H164.1l-22.9 80H370.8l-22.9-80zM144 352a24 24 0 1 1 0 48 24 24 0 1 1 0-48zm200 24a24 24 0 1 1 48 0 24 24 0 1 1 -48 0zM56 33.4L67.3 44.7l48 48L126.6 104 104 126.6 92.7 115.3l-48-48L33.4 56 56 33.4zM444.7 44.7L456 33.4 478.6 56 467.3 67.3l-48 48L408 126.6 385.4 104l11.3-11.3 48-48z"/></svg>
